local/share/icons/dracula-icons-main/24/devices/drive-removable-media-usb-pendrive.svg

<?xml version="1.0" encoding="UTF-8"?>
<svg xmlns="http://www.w3.org/2000/svg" xmlns:xlink="http://www.w3.org/1999/xlink" width="24" height="24" viewBox="0 0 24 24">
<path fill-rule="nonzero" fill="rgb(44.705882%, 44.705882%, 44.705882%)" fill-opacity="1" d="M 8.84375 5.003906 C 8.5625 5.050781 8 5.253906 8 6.003906 L 8 15.003906 C 8 15.003906 8 16.003906 9 16.003906 L 15 16.003906 C 16 16.003906 16 15.003906 16 15.003906 L 16 6.003906 C 16 5.003906 15 5.003906 15 5.003906 L 9 5.003906 C 9 5.003906 8.9375 4.988281 8.84375 5.003906 Z M 9 17.003906 L 9 19.003906 L 15 19.003906 L 15 17.003906 Z M 9 17.003906 "/>
</svg>

<svg width="24" height="24" version="1.1" viewBox="0 0 24 24" xmlns="http://www.w3.org/2000/svg">
 <defs>
  <style id="current-color-scheme" type="text/css">.ColorScheme-Text { color:#727272; } .ColorScheme-Highlight { color:#5294e2; }</style>
 </defs>
 <path class="ColorScheme-Text" d="m8.8438 5.0035c-0.28125 0.0469-0.84375 0.25-0.84375 1v9s0 1 1 1h6c1 0 1-1 1-1v-9c0-1-1-1-1-1h-6s-0.0625-0.0156-0.15625 0zm0.15625 12v2h6v-2z" color="#727272" fill="currentColor"/>
</svg>
